X:29
T:Gander in the Pratie Hole
C:Traditional
M:6/8
R:jig
K:Dmix
FAD FAD | GFG EFG | FAD FAD | GED D3 |
FAD FAD | GFG EFG | fed cAG | FDD D3 :|
|: Ad/d/d ded | cAB cBA | Ad/d/d ded | cAB cc/c/c |
Ad/d/d ded | cAB cde | fed cAG | FDD D3 :|

